X:147
T:Tune the Fiddle
R:polka
S:juliaclifford.eu
H:Cf. #162
Z:id:hn-polka-147
M:2/4
L:1/8
K:Ador
B/d/ | eA BA | eA AB/d/ | eA BA | G2 GB/d/ |
eA BA | eA AB/A/ | GB dB | A2 A :|
|: B/d/ | ea a>f | gf ed | B/c/d ef | g2 gf/g/ |
ea a>f | gf ed | Bd gB | A2 A :|

